svgs/sharp-solid/clipboard-list-check.svg

<svg xmlns="http://www.w3.org/2000/svg" viewBox="0 0 384 512"><!--! Font Awesome Pro 6.6.0 by @fontawesome - https://fontawesome.com License - https://fontawesome.com/license (Commercial License) Copyright 2024 Fonticons, Inc. --><path d="M101.5 64C114.6 26.7 150.2 0 192 0s77.4 26.7 90.5 64L384 64l0 448L0 512 0 64l101.5 0zM224 96a32 32 0 1 0 -64 0 32 32 0 1 0 64 0zM198.6 208L176 185.4l-11.3 11.3L112 249.4 91.3 228.7 80 217.4 57.4 240l11.3 11.3 32 32L112 294.6l11.3-11.3 64-64L198.6 208zm9.4 48l-16 0 0 32 16 0 96 0 16 0 0-32-16 0-96 0zm-48 96l0 32 16 0 128 0 16 0 0-32-16 0-128 0-16 0zM96 392a24 24 0 1 0 0-48 24 24 0 1 0 0 48z"/></svg>

<svg xmlns="http://www.w3.org/2000/svg" viewBox="0 0 384 512"><!--! Font Awesome Pro 6.4.2 by @fontawesome - https://fontawesome.com License - https://fontawesome.com/license (Commercial License) Copyright 2023 Fonticons, Inc. --><path d="M101.5 64C114.6 26.7 150.2 0 192 0s77.4 26.7 90.5 64H384V512H0V64H101.5zM224 96a32 32 0 1 0 -64 0 32 32 0 1 0 64 0zM198.6 208L176 185.4l-11.3 11.3L112 249.4 91.3 228.7 80 217.4 57.4 240l11.3 11.3 32 32L112 294.6l11.3-11.3 64-64L198.6 208zm9.4 48H192v32h16 96 16V256H304 208zm-48 96v32h16H304h16V352H304 176 160zM96 392a24 24 0 1 0 0-48 24 24 0 1 0 0 48z"/></svg>
